X:6
T:The Devil and the Dirk
T:From Harp and Claymore
C: J. Scott Skinner
M:C|
L:1/8
Z: Jason R. Fruit <JasonFruit@gmail.com>
K:D
{c}d | D/D/D (FD) AD {c}d2 | (AD).F.D CE-E.F | D/D/D (FD) AD {c}d2 | (AF) .G.E FD-D :|
c' | d'ddd' c'ccc' | bBBb aAAa | gGGg fFFf | eBed c!<(!ea!<)!c' |
d'ddd' c'ccc' | bBBb aAAa | geag fad'b | (af).g.e fdd || "^Last."!fermata![DA,]4 |]

